X: 20913
T: Josiane
R: barndance
M: 4/4
K: Gmajor
B|GF EF2< E2F|G>A Be d>c BA|B2ze2 d>c BA|GA BG F2zG|FG A/G/F dB AG|
FG BF E2 z B|GF EF2< E2F|G>A Be d>c BA|B2ze d>c BA|
GA BG F2zG|FG A/G/F dB AG|FG BF E> zBd||e2 gc Bc d/c/B|
AB cd B2zG|FG A/G/F dB AG|FG BF E>z Bd|e2 gc Bc d/c/B|
AB cd d2zG|FG A/G/F dB AG|FG BF E2zB||

